Numix-GalliumOS/24/actions/gtk-undelete.svg

<?xml version="1.0" encoding="UTF-8" standalone="no"?>
<svg
   xmlns:dc="http://purl.org/dc/elements/1.1/"
   xmlns:cc="http://creativecommons.org/ns#"
   xmlns:rdf="http://www.w3.org/1999/02/22-rdf-syntax-ns#"
   xmlns:svg="http://www.w3.org/2000/svg"
   xmlns="http://www.w3.org/2000/svg"
   xmlns:sodipodi="http://sodipodi.sourceforge.net/DTD/sodipodi-0.dtd"
   xmlns:inkscape="http://www.inkscape.org/namespaces/inkscape"
   width="24"
   height="24"
   viewBox="0 0 24 24"
   id="svg2"
   version="1.1"
   inkscape:version="0.91 r"
   sodipodi:docname="gtk-undelete.svg">
  <metadata
     id="metadata24">
    <rdf:RDF>
      <cc:Work
         rdf:about="">
        <dc:format>image/svg+xml</dc:format>
        <dc:type
           rdf:resource="http://purl.org/dc/dcmitype/StillImage" />
        <dc:title></dc:title>
      </cc:Work>
    </rdf:RDF>
  </metadata>
  <defs
     id="defs22" />
  <sodipodi:namedview
     pagecolor="#ffffff"
     bordercolor="#666666"
     borderopacity="1"
     objecttolerance="10"
     gridtolerance="10"
     guidetolerance="10"
     inkscape:pageopacity="0"
     inkscape:pageshadow="2"
     inkscape:window-width="1366"
     inkscape:window-height="747"
     id="namedview20"
     showgrid="false"
     inkscape:zoom="15.170655"
     inkscape:cx="0.15475222"
     inkscape:cy="7.1236514"
     inkscape:window-x="0"
     inkscape:window-y="21"
     inkscape:window-maximized="1"
     inkscape:current-layer="svg2" />
  <g
     id="g4">
    <path
       style="fill:#dc322f"
       d="m 19,8 0,12 c 0,2 0,2 -2,2 L 7,22 C 5,22 5,22 5,20 L 5,8 c 4,0 11,0 14,0 z"
       id="path6"
       inkscape:connector-curvature="0" />
  </g>
  <g
     style="fill:#ffffff;fill-opacity:0.66699997"
     id="g8">
    <path
       d="M 7,10 7,20 9,20 9,10 Z"
       id="path10"
       inkscape:connector-curvature="0" />
    <path
       d="m 11,10 0,10 2,0 0,-10 z"
       id="path12"
       inkscape:connector-curvature="0" />
    <path
       d="m 15,10 0,10 2,0 0,-10 z"
       id="path14"
       inkscape:connector-curvature="0" />
  </g>
  <g
     id="g16">
    <path
       style="fill:#dc322f"
       d="M 5,6 19,6 19,4 15,4 15,2 9,2 9,4 5,4 Z"
       id="path18"
       inkscape:connector-curvature="0" />
  </g>
  <path
     id="path4154"
     d="m 17.578913,21.96845 c 0.557071,-0.233832 1.045367,-0.502051 1.458012,-0.804657 4.064554,-3.191121 1.292955,-7.950294 -3.534992,-7.950294 l 0,-2.750967 L 10,14.588982 l 5.501933,4.814192 0,-2.750967 c 4.140205,0.69462 4.153959,1.320465 2.083858,4.807315 0,0 -0.687742,0.694619 0,0.508928 z"
     style="color:#bebebe;fill:#859900;fill-opacity:1"
     inkscape:connector-curvature="0" />
</svg>

<svg xmlns="http://www.w3.org/2000/svg" viewBox="0 0 24 24">
 <g>
  <path d="m 19,8 0,12 c 0,2 0,2 -2,2 L 7,22 C 5,22 5,22 5,20 L 5,8 c 4,0 11,0 14,0 z" style="fill:#dc322f"/>
 </g>
 <g style="fill:#fff;fill-opacity:0.667">
  <path d="m 7 10 0 10 2 0 0 -10"/>
  <path d="m 11 10 0 10 2 0 0 -10 z"/>
  <path d="m 15 10 0 10 2 0 0 -10 z"/>
 </g>
 <g>
  <path d="m 5 6 14 0 0 -2 -4 0 0 -2 -6 0 0 2 -4 0" style="fill:#dc322f"/>
 </g>
 <path d="m 17.579 21.968 c 0.557 -0.234 1.045 -0.502 1.458 -0.805 4.065 -3.191 1.293 -7.95 -3.535 -7.95 l 0 -2.751 l -5.502 4.126 l 5.502 4.814 0 -2.751 c 4.14 0.695 4.154 1.32 2.084 4.807 0 0 -0.688 0.695 0 0.509 z" style="fill:#859900;fill-opacity:1;color:#bebebe"/>
</svg>
